X:91
T:Angus MacKinnon
C:Joe Buchanan's Scottish Tome - Page 097.2
I:097 2
R:Jig
Z:Carl Allison
L:1/8
M:6/8
K:D
c/d/ | "Bm"{f}f2 B B>cB | af/e "E7"f>ga |"A"{d}(c2 A) A>BA |  "E7"(e2 B) c>BA |
"Bm"{/f}(f2 B) B>cB | a>fe {f}f3 | "A"a>ee f>ga |"Bm"{/d}cB/B B2 :|
(c/e/) | "Bm"{f}f3 (a2 e) | f>ga "E7"(f2 e) |"A"{/d}(c2 A) A>BA |"E7" (e2 B) "A"c>BA |
"Bm"{f}f3 (a2e) | f>ga f3 | "A"a>ee f>ga | "Bm"{d}c>BB B2 :|
c/e/ | "Bm"{g}(f2 B) B>cd | B>cd "E7"d>cB | "A"A>ce c>BA | e>cA c>BA|
"Bm"{/f}(f2 B) B>cd | B>cd "E7"d>cB | "A"A>ce f>ga | "Bm"{d}c>BB B2 :|
(c/e/) | "Bm"{/f}f2 B a>ga |  f>BB  "E7"(f2 e) | "A"{d}(c2 A) A>BA | "E"(e2 B) "A"c>BA |
"Bm"{g}(f2 B) a>ga | "Bm"f>BB "E7"{g}a2 f | "A"a>ee f>ga | "Bm"{d}c>BB B2 :|

